X:1
T:Title
%%score ( 1 2 3 ) ( 4 5 6 )
L:1/8
M:4/4
K:F
V:1 treble nm="Synth Voice, Staff"
V:2 treble 
V:3 treble 
V:4 bass nm="Voice Oohs, Staff-1"
V:5 bass 
V:6 bass 
V:1
 [FA]2 F2 [FB]2 [FA]2 | [EG]3 [EA] [CG]2 [CF]2 | [CE]2 [CF]2 [CG]2 [FA]2 | [Ec]3 [EB] [FA]4 | %4
w: By~Willis~A.~Moore * * *||||
 [FA]3 F [FB]2 [FA]2 | [EG]3 [EA] [CG]2 [CF]2 | [DF]2 [EG]2 [FA]2 [Fd]2 | [Ec]2 [F=B]2 [Ec]4 | %8
w: ||||
 [Fc]3 [Fd] [Fc]2 [EB]2 | [FA]3 [FB] [FA]2 [EG]2 | [DF]2 [A,E]2 [B,D]2 [CF]2 | [EB]2 [FA]2 [EG]4 | %12
w: ||||
 [CF]3 [CF] [B,F]2 [CF]2 | D2 z G [DA]2 [DB]2 | [Cc]2 [Fd]2 [Fc]2 [DF]2 | [FG]2 [EG]2 [CF]4 | %16
w: ||||
 [FA]2 F2 [FB]2 [FA]2 | [EG]3 [EA] [CG]2 [CF]2 | [CE]2 [CF]2 [CG]2 [FA]2 | [Ec]3 [EB] [FA]4 | %20
w: ||||
 [FA]3 F [FB]2 [FA]2 | [EG]3 [EA] [CG]2 [CF]2 | [DF]2 [EG]2 [FA]2 [Fd]2 | [Ec]2 [F=B]2 [Ec]4 | %24
w: ||||
 [Fc]3 [Fd] [Fc]2 [EB]2 | [FA]3 [FB] [FA]2 [EG]2 | [DF]2 [A,E]2 [B,D]2 [CF]2 | [EB]2 [FA]2 [EG]4 | %28
w: ||||
 [CF]3 [CF] [B,F]2 [CF]2 | D2 z G [DA]2 [DB]2 | [Cc]2 [Fd]2 [Fc]2 [DF]2 | [FG]2 [EG]2 [CF]4 | %32
w: ||||
 [FA]2 F2 [FB]2 [FA]2 | [EG]3 [EA] [CG]2 [CF]2 | [CE]2 [CF]2 [CG]2 [FA]2 | [Ec]3 [EB] [FA]4 | %36
w: ||||
 [FA]3 F [FB]2 [FA]2 | [EG]3 [EA] [CG]2 [CF]2 | [DF]2 [EG]2 [FA]2 [Fd]2 | [Ec]2 [F=B]2 [Ec]4 | %40
w: ||||
 [Fc]3 [Fd] [Fc]2 [EB]2 | [FA]3 [FB] [FA]2 [EG]2 | [DF]2 [A,E]2 [B,D]2 [CF]2 | [EB]2 [FA]2 [EG]4 | %44
w: ||||
 [CF]3 [CF] [B,F]2 [CF]2 | D2 z G [DA]2 [DB]2 | [Cc]2 [Fd]2 [Fc]2 [DF]2 | [FG]2 [EG]2 [CF]4 | %48
w: ||||
 [DF]8 | [CF]8 |] %50
w: ||
V:2
 x8 | x8 | x8 | x8 | x8 | x8 | x8 | x8 | x8 | x8 | x8 | x8 | x8 | F4 z4 | x8 | x8 | x8 | x8 | x8 | %19
 x8 | x8 | x8 | x8 | x8 | x8 | x8 | x8 | x8 | x8 | F4 z4 | x8 | x8 | x8 | x8 | x8 | x8 | x8 | x8 | %38
 x8 | x8 | x8 | x8 | x8 | x8 | x8 | F4 z4 | x8 | x8 | x8 | x8 |] %50
V:3
 x8 | x8 | x8 | x8 | x8 | x8 | x8 | x8 | x8 | x8 | x8 | x8 | x8 | z2 D2 z4 | x8 | x8 | x8 | x8 | %18
 x8 | x8 | x8 | x8 | x8 | x8 | x8 | x8 | x8 | x8 | x8 | z2 D2 z4 | x8 | x8 | x8 | x8 | x8 | x8 | %36
 x8 | x8 | x8 | x8 | x8 | x8 | x8 | x8 | x8 | z2 D2 z4 | x8 | x8 | x8 | x8 |] %50
V:4
 [F,C]2 [F,A,]2 [F,D]2 [F,C]2 | z2 B,2 z4 | [G,B,]2 [F,A,]2 [E,B,]2 [D,F,]2 | %3
 [C,G,]3 [C,C] [F,C]4 | [F,C]3 [F,A,] [F,D]2 [F,C]2 | [C,C]3 [C,C] [E,B,]2 [F,A,]2 | %6
 [D,A,]2 [C,C]2 [A,,C]2 [F,,A,]2 | [G,,G,]2 [G,,D]2 C2 B,2 | [F,A,]3 B, [A,C]2 [G,C]2 | %9
 [F,C]3 [F,D] [C,C]2 [^C,B,]2 | [D,A,]2 [C,A,]2 [B,,F,]2 [A,,F,]2 | [G,,C]2 [F,,C]2 [C,C]4 | %12
 A,3 A, [D,B,]2 [C,A,]2 | [B,,B,]2 [B,,G,]2 [A,,^F,]2 [G,,G,]2 | %14
 [A,,F,]2 [B,,G,]2 [C,A,]2 [D,A,]2 | [C,B,]2 [C,B,]2 [F,A,]4 | [F,C]2 [F,A,]2 [F,D]2 [F,C]2 | %17
 z2 B,2 z4 | [G,B,]2 [F,A,]2 [E,B,]2 [D,F,]2 | [C,G,]3 [C,C] [F,C]4 | [F,C]3 [F,A,] [F,D]2 [F,C]2 | %21
 [C,C]3 [C,C] [E,B,]2 [F,A,]2 | [D,A,]2 [C,C]2 [A,,C]2 [F,,A,]2 | [G,,G,]2 [G,,D]2 C2 B,2 | %24
 [F,A,]3 B, [A,C]2 [G,C]2 | [F,C]3 [F,D] [C,C]2 [^C,B,]2 | [D,A,]2 [C,A,]2 [B,,F,]2 [A,,F,]2 | %27
 [G,,C]2 [F,,C]2 [C,C]4 | A,3 A, [D,B,]2 [C,A,]2 | [B,,B,]2 [B,,G,]2 [A,,^F,]2 [G,,G,]2 | %30
 [A,,F,]2 [B,,G,]2 [C,A,]2 [D,A,]2 | [C,B,]2 [C,B,]2 [F,A,]4 | [F,C]2 [F,A,]2 [F,D]2 [F,C]2 | %33
 z2 B,2 z4 | [G,B,]2 [F,A,]2 [E,B,]2 [D,F,]2 | [C,G,]3 [C,C] [F,C]4 | [F,C]3 [F,A,] [F,D]2 [F,C]2 | %37
 [C,C]3 [C,C] [E,B,]2 [F,A,]2 | [D,A,]2 [C,C]2 [A,,C]2 [F,,A,]2 | [G,,G,]2 [G,,D]2 C2 B,2 | %40
 [F,A,]3 B, [A,C]2 [G,C]2 | [F,C]3 [F,D] [C,C]2 [^C,B,]2 | [D,A,]2 [C,A,]2 [B,,F,]2 [A,,F,]2 | %43
 [G,,C]2 [F,,C]2 [C,C]4 | A,3 A, [D,B,]2 [C,A,]2 | [B,,B,]2 [B,,G,]2 [A,,^F,]2 [G,,G,]2 | %46
 [A,,F,]2 [B,,G,]2 [C,A,]2 [D,A,]2 | [C,B,]2 [C,B,]2 [F,A,]4 | [B,,B,]8 | [F,,A,]8 |] %50
V:5
 x8 | C2 z C, [E,B,]2 [F,A,]2 | x8 | x8 | x8 | x8 | x8 | z4 C,4 | x8 | x8 | x8 | x8 | F,2 E,2 z4 | %13
 x8 | x8 | x8 | x8 | C2 z C, [E,B,]2 [F,A,]2 | x8 | x8 | x8 | x8 | x8 | z4 C,4 | x8 | x8 | x8 | %27
 x8 | F,2 E,2 z4 | x8 | x8 | x8 | x8 | C2 z C, [E,B,]2 [F,A,]2 | x8 | x8 | x8 | x8 | x8 | z4 C,4 | %40
 x8 | x8 | x8 | x8 | F,2 E,2 z4 | x8 | x8 | x8 | x8 | x8 |] %50
V:6
 x8 | C,4 z4 | x8 | x8 | x8 | x8 | x8 | x8 | x8 | x8 | x8 | x8 | x8 | x8 | x8 | x8 | x8 | C,4 z4 | %18
 x8 | x8 | x8 | x8 | x8 | x8 | x8 | x8 | x8 | x8 | x8 | x8 | x8 | x8 | x8 | C,4 z4 | x8 | x8 | x8 | %37
 x8 | x8 | x8 | x8 | x8 | x8 | x8 | x8 | x8 | x8 | x8 | x8 | x8 |] %50

